assets/icons/category_dark.svg

<?xml version="1.0" encoding="UTF-8"?>
<svg xmlns="http://www.w3.org/2000/svg" id="Layer_1" data-name="Layer 1" viewBox="0 0 24 24">
  <path d="m18.5,0H5.5C2.468,0,0,2.467,0,5.5v13c0,3.033,2.468,5.5,5.5,5.5h13c3.032,0,5.5-2.467,5.5-5.5V5.5c0-3.033-2.468-5.5-5.5-5.5Zm2.5,18.5c0,1.378-1.121,2.5-2.5,2.5H5.5c-1.379,0-2.5-1.122-2.5-2.5V5.5c0-1.378,1.121-2.5,2.5-2.5h13c1.379,0,2.5,1.122,2.5,2.5v13ZM11,6.5v3c0,.828-.672,1.5-1.5,1.5h-3c-.828,0-1.5-.672-1.5-1.5v-3c0-.828.672-1.5,1.5-1.5h3c.828,0,1.5.672,1.5,1.5Zm8,0v3c0,.828-.672,1.5-1.5,1.5h-3c-.828,0-1.5-.672-1.5-1.5v-3c0-.828.672-1.5,1.5-1.5h3c.828,0,1.5.672,1.5,1.5Zm-8,8v3c0,.828-.672,1.5-1.5,1.5h-3c-.828,0-1.5-.672-1.5-1.5v-3c0-.828.672-1.5,1.5-1.5h3c.828,0,1.5.672,1.5,1.5Zm8,0v3c0,.828-.672,1.5-1.5,1.5h-3c-.828,0-1.5-.672-1.5-1.5v-3c0-.828.672-1.5,1.5-1.5h3c.828,0,1.5.672,1.5,1.5Z"/>
</svg>

<svg xmlns="http://www.w3.org/2000/svg" data-name="Layer 1" viewBox="0 0 24 24"><path d="M18.5 0h-13A5.506 5.506 0 0 0 0 5.5v13C0 21.533 2.468 24 5.5 24h13c3.032 0 5.5-2.467 5.5-5.5v-13C24 2.467 21.532 0 18.5 0M21 18.5c0 1.378-1.121 2.5-2.5 2.5h-13A2.503 2.503 0 0 1 3 18.5v-13C3 4.122 4.121 3 5.5 3h13C19.879 3 21 4.122 21 5.5zm-10-12v3A1.5 1.5 0 0 1 9.5 11h-3A1.5 1.5 0 0 1 5 9.5v-3A1.5 1.5 0 0 1 6.5 5h3A1.5 1.5 0 0 1 11 6.5m8 0v3a1.5 1.5 0 0 1-1.5 1.5h-3A1.5 1.5 0 0 1 13 9.5v-3A1.5 1.5 0 0 1 14.5 5h3A1.5 1.5 0 0 1 19 6.5m-8 8v3A1.5 1.5 0 0 1 9.5 19h-3A1.5 1.5 0 0 1 5 17.5v-3A1.5 1.5 0 0 1 6.5 13h3a1.5 1.5 0 0 1 1.5 1.5m8 0v3a1.5 1.5 0 0 1-1.5 1.5h-3a1.5 1.5 0 0 1-1.5-1.5v-3a1.5 1.5 0 0 1 1.5-1.5h3a1.5 1.5 0 0 1 1.5 1.5"/></svg>
